X:204
%%pagewidth 9in
%%vocalfont Baskerville10Pro 14
T:Maying-time
M:C
L:1/8
K:G
%%score 1 2
V:1 clef-treble
V:2 clef-bass octave=-1
%%pos vol above
[V:1]"^WILLY."\
d2G2[CF]2[B,G]2 & D4x4|A3G[B,G]4 & [CF]2x6|A3A [D^G]2[CA]2 & E2x6|B3A [CA]4 & [D^G]2x6|
w:How now, Shep-herd, what means that? Why that wil-low in thy hat?
[V:2]B4 A2G2|D4G4|c4 B2A2|E4 A4|
[V:1]B3d c2G2 & (=F4 E2)x2|^F2A2 G2[GB]2 & (C4 B,2)x2|[DA]2[Fc]2 [GB]2[Gd]2|^c2e2 d2d2 & G4 F2x2||
w:Why thy scarfs of red and yel-low Turn'd to branch-es of green wil-low?
[V:2](G4 c2)z2|(D4 E2)E2|F2A2G2B2|A4 d2D2||
[V:1]"^CUDDY."\
B2B2d2d2 & G4 F4|A3B [Ec]4 & F4x4|G3A B2G2 & E4 D4|F3G [DA]4 & D4x4|
w:They are chang'd, and so am I; Sor-rows live, but plea-sures die:
[V:2]E4 B,4|D4 A,4|C4 G,4|B,4 F,4|
[V:1]E3F [B,G]2[GB]2 & C4x4|[DA]2[Fc]2 [GB]2[FB]2|[EA]2[DG]2[CF]2[B,G]2|A3G [B,G]4 & [CF]2x6||
w:Phil-lis hath for sa-ken me, Which makes me wear the wil-low tree.
[V:2]A,4 E,2E,2|F,2D,2G,2d2|c2B2 A2G2|D4 G4||

